images/3234272.svg

<?xml version="1.0" encoding="UTF-8"?>
<svg xmlns="http://www.w3.org/2000/svg" xmlns:xlink="http://www.w3.org/1999/xlink" width="300pt" height="300pt" viewBox="0 0 300 300" version="1.1">
<defs>
<g>
<symbol overflow="visible" id="glyph0-0">
<path style="stroke:none;" d="M 0.546875 1.9375 L 0.546875 -7.75 L 6.046875 -7.75 L 6.046875 1.9375 Z M 1.171875 1.328125 L 5.4375 1.328125 L 5.4375 -7.140625 L 1.171875 -7.140625 Z M 1.171875 1.328125 "/>
</symbol>
<symbol overflow="visible" id="glyph0-1">
<path style="stroke:none;" d="M 1.078125 -8.015625 L 2.546875 -8.015625 L 6.09375 -1.3125 L 6.09375 -8.015625 L 7.15625 -8.015625 L 7.15625 0 L 5.6875 0 L 2.125 -6.703125 L 2.125 0 L 1.078125 0 Z M 1.078125 -8.015625 "/>
</symbol>
<symbol overflow="visible" id="glyph0-2">
<path style="stroke:none;" d="M 1.078125 -8.015625 L 2.171875 -8.015625 L 2.171875 -4.734375 L 6.109375 -4.734375 L 6.109375 -8.015625 L 7.1875 -8.015625 L 7.1875 0 L 6.109375 0 L 6.109375 -3.8125 L 2.171875 -3.8125 L 2.171875 0 L 1.078125 0 Z M 1.078125 -8.015625 "/>
</symbol>
</g>
</defs>
<g id="surface40101">
<rect x="0" y="0" width="300" height="300" style="fill:rgb(100%,100%,100%);fill-opacity:1;stroke:none;"/>
<path style="fill:none;stroke-width:1.2;stroke-linecap:butt;stroke-linejoin:miter;stroke:rgb(0%,0%,0%);stroke-opacity:1;stroke-miterlimit:10;" d="M 35.25 139.324219 L 46.414062 148.125 "/>
<path style="fill:none;stroke-width:1.2;stroke-linecap:butt;stroke-linejoin:miter;stroke:rgb(0%,0%,100%);stroke-opacity:1;stroke-miterlimit:10;" d="M 46.414062 148.125 L 57.574219 156.929688 "/>
<path style="fill:none;stroke-width:1.2;stroke-linecap:butt;stroke-linejoin:miter;stroke:rgb(0%,0%,100%);stroke-opacity:1;stroke-miterlimit:10;" d="M 57.574219 156.929688 L 55.535156 170.996094 "/>
<path style="fill:none;stroke-width:1.2;stroke-linecap:butt;stroke-linejoin:miter;stroke:rgb(0%,0%,0%);stroke-opacity:1;stroke-miterlimit:10;" d="M 55.535156 170.996094 L 53.496094 185.0625 "/>
<path style="fill:none;stroke-width:1.2;stroke-linecap:butt;stroke-linejoin:miter;stroke:rgb(0%,0%,100%);stroke-opacity:1;stroke-miterlimit:10;" d="M 57.574219 156.929688 L 70.777344 151.660156 "/>
<path style="fill:none;stroke-width:1.2;stroke-linecap:butt;stroke-linejoin:miter;stroke:rgb(0%,0%,0%);stroke-opacity:1;stroke-miterlimit:10;" d="M 70.777344 151.660156 L 83.984375 146.394531 "/>
<path style=" stroke:none;fill-rule:nonzero;fill:rgb(100%,100%,100%);fill-opacity:1;" d="M 53.574219 150.429688 L 61.574219 150.429688 L 61.574219 163.429688 L 53.574219 163.429688 Z M 53.574219 150.429688 "/>
<g style="fill:rgb(0%,0%,100%);fill-opacity:1;">
  <use xlink:href="#glyph0-1" x="53.574219" y="160.331055"/>
</g>
<path style="fill:none;stroke-width:1.2;stroke-linecap:butt;stroke-linejoin:miter;stroke:rgb(0%,0%,0%);stroke-opacity:1;stroke-miterlimit:10;" d="M 83.984375 146.394531 L 88.0625 118.257812 "/>
<path style="fill:none;stroke-width:1.2;stroke-linecap:butt;stroke-linejoin:miter;stroke:rgb(0%,0%,0%);stroke-opacity:1;stroke-miterlimit:10;" d="M 91.011719 144.542969 L 94.277344 122.03125 "/>
<path style="fill:none;stroke-width:1.2;stroke-linecap:butt;stroke-linejoin:miter;stroke:rgb(0%,0%,0%);stroke-opacity:1;stroke-miterlimit:10;" d="M 106.308594 163.996094 L 83.984375 146.394531 "/>
<path style="fill:none;stroke-width:1.2;stroke-linecap:butt;stroke-linejoin:miter;stroke:rgb(0%,0%,0%);stroke-opacity:1;stroke-miterlimit:10;" d="M 88.0625 118.257812 L 114.472656 107.726562 "/>
<path style="fill:none;stroke-width:1.2;stroke-linecap:butt;stroke-linejoin:miter;stroke:rgb(0%,0%,0%);stroke-opacity:1;stroke-miterlimit:10;" d="M 114.472656 107.726562 L 136.796875 125.328125 "/>
<path style="fill:none;stroke-width:1.2;stroke-linecap:butt;stroke-linejoin:miter;stroke:rgb(0%,0%,0%);stroke-opacity:1;stroke-miterlimit:10;" d="M 112.5625 114.738281 L 130.421875 128.820312 "/>
<path style="fill:none;stroke-width:1.2;stroke-linecap:butt;stroke-linejoin:miter;stroke:rgb(0%,0%,0%);stroke-opacity:1;stroke-miterlimit:10;" d="M 136.796875 125.328125 L 132.714844 153.464844 "/>
<path style="fill:none;stroke-width:1.2;stroke-linecap:butt;stroke-linejoin:miter;stroke:rgb(0%,0%,0%);stroke-opacity:1;stroke-miterlimit:10;" d="M 136.796875 125.328125 L 163.203125 114.796875 "/>
<path style="fill:none;stroke-width:1.2;stroke-linecap:butt;stroke-linejoin:miter;stroke:rgb(0%,0%,0%);stroke-opacity:1;stroke-miterlimit:10;" d="M 132.714844 153.464844 L 106.308594 163.996094 "/>
<path style="fill:none;stroke-width:1.2;stroke-linecap:butt;stroke-linejoin:miter;stroke:rgb(0%,0%,0%);stroke-opacity:1;stroke-miterlimit:10;" d="M 127.597656 148.304688 L 106.46875 156.730469 "/>
<path style="fill:none;stroke-width:1.2;stroke-linecap:butt;stroke-linejoin:miter;stroke:rgb(0%,0%,0%);stroke-opacity:1;stroke-miterlimit:10;" d="M 163.203125 114.796875 L 185.527344 132.398438 "/>
<path style="fill:none;stroke-width:1.2;stroke-linecap:butt;stroke-linejoin:miter;stroke:rgb(0%,0%,0%);stroke-opacity:1;stroke-miterlimit:10;" d="M 169.578125 111.300781 L 187.4375 125.382812 "/>
<path style="fill:none;stroke-width:1.2;stroke-linecap:butt;stroke-linejoin:miter;stroke:rgb(0%,0%,0%);stroke-opacity:1;stroke-miterlimit:10;" d="M 167.285156 86.660156 L 163.203125 114.796875 "/>
<path style="fill:none;stroke-width:1.2;stroke-linecap:butt;stroke-linejoin:miter;stroke:rgb(0%,0%,0%);stroke-opacity:1;stroke-miterlimit:10;" d="M 185.527344 132.398438 L 211.9375 121.863281 "/>
<path style="fill:none;stroke-width:1.2;stroke-linecap:butt;stroke-linejoin:miter;stroke:rgb(0%,0%,0%);stroke-opacity:1;stroke-miterlimit:10;" d="M 211.9375 121.863281 L 216.015625 93.726562 "/>
<path style="fill:none;stroke-width:1.2;stroke-linecap:butt;stroke-linejoin:miter;stroke:rgb(0%,0%,0%);stroke-opacity:1;stroke-miterlimit:10;" d="M 218.964844 120.011719 L 222.230469 97.503906 "/>
<path style="fill:none;stroke-width:1.2;stroke-linecap:butt;stroke-linejoin:miter;stroke:rgb(0%,0%,0%);stroke-opacity:1;stroke-miterlimit:10;" d="M 234.261719 139.464844 L 211.9375 121.863281 "/>
<path style="fill:none;stroke-width:1.2;stroke-linecap:butt;stroke-linejoin:miter;stroke:rgb(0%,0%,0%);stroke-opacity:1;stroke-miterlimit:10;" d="M 216.015625 93.726562 L 193.691406 76.125 "/>
<path style="fill:none;stroke-width:1.2;stroke-linecap:butt;stroke-linejoin:miter;stroke:rgb(0%,0%,0%);stroke-opacity:1;stroke-miterlimit:10;" d="M 216.015625 93.726562 L 229.222656 88.460938 "/>
<path style="fill:none;stroke-width:1.2;stroke-linecap:butt;stroke-linejoin:miter;stroke:rgb(0%,0%,100%);stroke-opacity:1;stroke-miterlimit:10;" d="M 229.222656 88.460938 L 242.425781 83.195312 "/>
<path style="fill:none;stroke-width:1.2;stroke-linecap:butt;stroke-linejoin:miter;stroke:rgb(0%,0%,0%);stroke-opacity:1;stroke-miterlimit:10;" d="M 193.691406 76.125 L 167.285156 86.660156 "/>
<path style="fill:none;stroke-width:1.2;stroke-linecap:butt;stroke-linejoin:miter;stroke:rgb(0%,0%,0%);stroke-opacity:1;stroke-miterlimit:10;" d="M 193.53125 83.394531 L 172.402344 91.820312 "/>
<path style="fill:none;stroke-width:1.2;stroke-linecap:butt;stroke-linejoin:miter;stroke:rgb(0%,0%,100%);stroke-opacity:1;stroke-miterlimit:10;" d="M 242.425781 83.195312 L 253.585938 91.996094 "/>
<path style="fill:none;stroke-width:1.2;stroke-linecap:butt;stroke-linejoin:miter;stroke:rgb(0%,0%,0%);stroke-opacity:1;stroke-miterlimit:10;" d="M 253.585938 91.996094 L 264.75 100.796875 "/>
<path style="fill:none;stroke-width:1.2;stroke-linecap:butt;stroke-linejoin:miter;stroke:rgb(0%,0%,100%);stroke-opacity:1;stroke-miterlimit:10;" d="M 240.515625 90.207031 L 249.445312 97.25 "/>
<path style="fill:none;stroke-width:1.2;stroke-linecap:butt;stroke-linejoin:miter;stroke:rgb(0%,0%,0%);stroke-opacity:1;stroke-miterlimit:10;" d="M 249.445312 97.25 L 258.375 104.289062 "/>
<path style=" stroke:none;fill-rule:nonzero;fill:rgb(100%,100%,100%);fill-opacity:1;" d="M 238.425781 76.695312 L 246.425781 76.695312 L 246.425781 89.695312 L 238.425781 89.695312 Z M 238.425781 76.695312 "/>
<g style="fill:rgb(0%,0%,100%);fill-opacity:1;">
  <use xlink:href="#glyph0-1" x="238.425781" y="86.59668"/>
</g>
<path style="fill:none;stroke-width:1.2;stroke-linecap:butt;stroke-linejoin:miter;stroke:rgb(0%,0%,0%);stroke-opacity:1;stroke-miterlimit:10;" d="M 264.75 100.796875 L 262.710938 114.867188 "/>
<path style="fill:none;stroke-width:1.2;stroke-linecap:butt;stroke-linejoin:miter;stroke:rgb(0%,0%,100%);stroke-opacity:1;stroke-miterlimit:10;" d="M 262.710938 114.867188 L 260.667969 128.933594 "/>
<path style="fill:none;stroke-width:1.2;stroke-linecap:butt;stroke-linejoin:miter;stroke:rgb(0%,0%,100%);stroke-opacity:1;stroke-miterlimit:10;" d="M 260.667969 128.933594 L 247.464844 134.199219 "/>
<path style="fill:none;stroke-width:1.2;stroke-linecap:butt;stroke-linejoin:miter;stroke:rgb(0%,0%,0%);stroke-opacity:1;stroke-miterlimit:10;" d="M 247.464844 134.199219 L 234.261719 139.464844 "/>
<path style="fill:none;stroke-width:1.2;stroke-linecap:butt;stroke-linejoin:miter;stroke:rgb(0%,0%,100%);stroke-opacity:1;stroke-miterlimit:10;" d="M 255.550781 123.773438 L 244.988281 127.988281 "/>
<path style="fill:none;stroke-width:1.2;stroke-linecap:butt;stroke-linejoin:miter;stroke:rgb(0%,0%,0%);stroke-opacity:1;stroke-miterlimit:10;" d="M 244.988281 127.988281 L 234.425781 132.199219 "/>
<path style=" stroke:none;fill-rule:nonzero;fill:rgb(100%,100%,100%);fill-opacity:1;" d="M 256.667969 122.433594 L 264.667969 122.433594 L 264.667969 135.433594 L 256.667969 135.433594 Z M 256.667969 122.433594 "/>
<g style="fill:rgb(0%,0%,100%);fill-opacity:1;">
  <use xlink:href="#glyph0-1" x="256.667969" y="132.334961"/>
</g>
<path style="fill:none;stroke-width:1.2;stroke-linecap:butt;stroke-linejoin:miter;stroke:rgb(0%,0%,0%);stroke-opacity:1;stroke-miterlimit:10;" d="M 234.261719 139.464844 L 232.222656 153.535156 "/>
<path style="fill:none;stroke-width:1.2;stroke-linecap:butt;stroke-linejoin:miter;stroke:rgb(0%,0%,100%);stroke-opacity:1;stroke-miterlimit:10;" d="M 232.222656 153.535156 L 230.179688 167.601562 "/>
<path style="fill:none;stroke-width:1.2;stroke-linecap:butt;stroke-linejoin:miter;stroke:rgb(0%,0%,100%);stroke-opacity:1;stroke-miterlimit:10;" d="M 230.179688 167.601562 L 216.976562 172.867188 "/>
<path style="fill:none;stroke-width:1.2;stroke-linecap:butt;stroke-linejoin:miter;stroke:rgb(0%,0%,0%);stroke-opacity:1;stroke-miterlimit:10;" d="M 216.976562 172.867188 L 203.773438 178.136719 "/>
<path style="fill:none;stroke-width:1.2;stroke-linecap:butt;stroke-linejoin:miter;stroke:rgb(0%,0%,0%);stroke-opacity:1;stroke-miterlimit:10;" d="M 252.503906 185.203125 L 241.34375 176.402344 "/>
<path style="fill:none;stroke-width:1.2;stroke-linecap:butt;stroke-linejoin:miter;stroke:rgb(0%,0%,100%);stroke-opacity:1;stroke-miterlimit:10;" d="M 241.34375 176.402344 L 230.179688 167.601562 "/>
<path style=" stroke:none;fill-rule:nonzero;fill:rgb(100%,100%,100%);fill-opacity:1;" d="M 226.179688 161.101562 L 234.179688 161.101562 L 234.179688 174.101562 L 226.179688 174.101562 Z M 226.179688 161.101562 "/>
<g style="fill:rgb(0%,0%,100%);fill-opacity:1;">
  <use xlink:href="#glyph0-1" x="226.179688" y="171.00293"/>
</g>
<path style="fill:none;stroke-width:1.2;stroke-linecap:butt;stroke-linejoin:miter;stroke:rgb(0%,0%,0%);stroke-opacity:1;stroke-miterlimit:10;" d="M 203.773438 178.136719 L 199.691406 206.273438 "/>
<path style="fill:none;stroke-width:1.2;stroke-linecap:butt;stroke-linejoin:miter;stroke:rgb(0%,0%,0%);stroke-opacity:1;stroke-miterlimit:10;" d="M 199.691406 206.273438 L 210.855469 215.074219 "/>
<path style="fill:none;stroke-width:1.2;stroke-linecap:butt;stroke-linejoin:miter;stroke:rgb(0%,0%,100%);stroke-opacity:1;stroke-miterlimit:10;" d="M 210.855469 215.074219 L 222.015625 223.875 "/>
<path style="fill:none;stroke-width:1.2;stroke-linecap:butt;stroke-linejoin:miter;stroke:rgb(0%,0%,100%);stroke-opacity:1;stroke-miterlimit:10;" d="M 222.015625 223.875 L 235.222656 218.605469 "/>
<path style="fill:none;stroke-width:1.2;stroke-linecap:butt;stroke-linejoin:miter;stroke:rgb(0%,0%,0%);stroke-opacity:1;stroke-miterlimit:10;" d="M 235.222656 218.605469 L 248.425781 213.339844 "/>
<path style=" stroke:none;fill-rule:nonzero;fill:rgb(100%,100%,100%);fill-opacity:1;" d="M 214.015625 217.375 L 231.015625 217.375 L 231.015625 230.375 L 214.015625 230.375 Z M 214.015625 217.375 "/>
<g style="fill:rgb(0%,0%,100%);fill-opacity:1;">
  <use xlink:href="#glyph0-1" x="214.015625" y="227.276367"/>
  <use xlink:href="#glyph0-2" x="221.999023" y="227.276367"/>
</g>
<path style="fill:none;stroke-width:1.2;stroke-linecap:butt;stroke-linejoin:miter;stroke:rgb(0%,0%,0%);stroke-opacity:1;stroke-miterlimit:10;" d="M 248.425781 213.339844 L 252.503906 185.203125 "/>
</g>
</svg>

<svg xmlns="http://www.w3.org/2000/svg" xmlns:xlink="http://www.w3.org/1999/xlink" width="300pt" height="300pt" viewBox="0 0 300 300"><defs><symbol overflow="visible"><path d="M.547 1.938V-7.75h5.5v9.688zm.625-.61h4.266v-8.47H1.171zm0 0"/></symbol><symbol overflow="visible" id="a"><path d="M1.078-8.016h1.47l3.546 6.704v-6.704h1.062V0H5.688L2.124-6.703V0H1.078zm0 0"/></symbol><symbol overflow="visible" id="b"><path d="M1.078-8.016h1.094v3.282H6.11v-3.282h1.077V0H6.11v-3.813H2.17V0H1.078zm0 0"/></symbol></defs><g><path fill="#fff" d="M0 0h300v300H0z"/><path d="M35.25 139.324l11.164 8.8" stroke-width="1.2" stroke="#000" stroke-miterlimit="10" fill="none"/><path d="M46.414 148.125l11.16 8.805M57.574 156.93l-2.04 14.066" stroke-width="1.2" stroke="#00f" stroke-miterlimit="10" fill="none"/><path d="M55.535 170.996l-2.04 14.066" stroke-width="1.2" stroke="#000" stroke-miterlimit="10" fill="none"/><path d="M57.574 156.93l13.203-5.27" stroke-width="1.2" stroke="#00f" stroke-miterlimit="10" fill="none"/><path d="M70.777 151.66l13.207-5.265" stroke-width="1.2" stroke="#000" stroke-miterlimit="10" fill="none"/><path d="M53.574 150.43h8v13h-8zm0 0" fill="#fff"/><use xlink:href="#a" x="53.574" y="160.331" fill="#00f"/><path d="M83.984 146.395l4.08-28.137M91.012 144.543l3.265-22.512M106.31 163.996l-22.326-17.6M88.063 118.258l26.41-10.53M114.473 107.727l22.324 17.6M112.563 114.738l17.86 14.082M136.797 125.328l-4.082 28.137M136.797 125.328l26.406-10.53M132.715 153.465l-26.406 10.53M127.598 148.305l-21.13 8.425M163.203 114.797l22.324 17.6M169.578 111.3l17.86 14.083M167.285 86.66l-4.082 28.137M185.527 132.398l26.41-10.535M211.938 121.863l4.078-28.136M218.965 120.012l3.265-22.508M234.262 139.465l-22.325-17.602M216.016 93.727L193.69 76.125M216.016 93.727l13.207-5.266" stroke-width="1.2" stroke="#000" stroke-miterlimit="10" fill="none"/><path d="M229.223 88.46l13.203-5.265" stroke-width="1.2" stroke="#00f" stroke-miterlimit="10" fill="none"/><path d="M193.69 76.125L167.286 86.66M193.53 83.395l-21.128 8.425" stroke-width="1.2" stroke="#000" stroke-miterlimit="10" fill="none"/><path d="M242.426 83.195l11.16 8.8" stroke-width="1.2" stroke="#00f" stroke-miterlimit="10" fill="none"/><path d="M253.586 91.996l11.164 8.8" stroke-width="1.2" stroke="#000" stroke-miterlimit="10" fill="none"/><path d="M240.516 90.207l8.93 7.043" stroke-width="1.2" stroke="#00f" stroke-miterlimit="10" fill="none"/><path d="M249.445 97.25l8.93 7.04" stroke-width="1.2" stroke="#000" stroke-miterlimit="10" fill="none"/><path d="M238.426 76.695h8v13h-8zm0 0" fill="#fff"/><use xlink:href="#a" x="238.426" y="86.597" fill="#00f"/><path d="M264.75 100.797l-2.04 14.07" stroke-width="1.2" stroke="#000" stroke-miterlimit="10" fill="none"/><path d="M262.71 114.867l-2.042 14.067M260.668 128.934l-13.203 5.265" stroke-width="1.2" stroke="#00f" stroke-miterlimit="10" fill="none"/><path d="M247.465 134.2l-13.203 5.265" stroke-width="1.2" stroke="#000" stroke-miterlimit="10" fill="none"/><path d="M255.55 123.773l-10.562 4.215" stroke-width="1.2" stroke="#00f" stroke-miterlimit="10" fill="none"/><path d="M244.988 127.988l-10.562 4.21" stroke-width="1.2" stroke="#000" stroke-miterlimit="10" fill="none"/><path d="M256.668 122.434h8v13h-8zm0 0" fill="#fff"/><use xlink:href="#a" x="256.668" y="132.335" fill="#00f"/><path d="M234.262 139.465l-2.04 14.07" stroke-width="1.2" stroke="#000" stroke-miterlimit="10" fill="none"/><path d="M232.223 153.535l-2.043 14.067M230.18 167.602l-13.203 5.265" stroke-width="1.2" stroke="#00f" stroke-miterlimit="10" fill="none"/><path d="M216.977 172.867l-13.204 5.27M252.504 185.203l-11.16-8.8" stroke-width="1.2" stroke="#000" stroke-miterlimit="10" fill="none"/><path d="M241.344 176.402l-11.164-8.8" stroke-width="1.2" stroke="#00f" stroke-miterlimit="10" fill="none"/><path d="M226.18 161.102h8v13h-8zm0 0" fill="#fff"/><use xlink:href="#a" x="226.18" y="171.003" fill="#00f"/><path d="M203.773 178.137l-4.082 28.136M199.69 206.273l11.165 8.8" stroke-width="1.2" stroke="#000" stroke-miterlimit="10" fill="none"/><path d="M210.855 215.074l11.16 8.8M222.016 223.875l13.207-5.27" stroke-width="1.2" stroke="#00f" stroke-miterlimit="10" fill="none"/><path d="M235.223 218.605l13.203-5.265" stroke-width="1.2" stroke="#000" stroke-miterlimit="10" fill="none"/><path d="M214.016 217.375h17v13h-17zm0 0" fill="#fff"/><g fill="#00f"><use xlink:href="#a" x="214.016" y="227.276"/><use xlink:href="#b" x="221.999" y="227.276"/></g><path d="M248.426 213.34l4.078-28.137" stroke-width="1.2" stroke="#000" stroke-miterlimit="10" fill="none"/></g></svg>
